X: 85
T: O Word of God the Father
M: 3/4 % time signature
L: 1/4 % default length
%%staves (S1V1 S1V2) | (S2V1 S2V2) 
V: S1V1 clef=treble 
%%MIDI beat 127 125 110 1
V: S1V2 
%%MIDI beat 127 125 110 1
V: S2V1 clef=bass 
%%MIDI beat 127 125 110 1
V: S2V2 
%%MIDI beat 127 125 110 1
K: C % key signature
%
%%MIDI program 1 0 % Piano 1
%%MIDI program 2 0 % Piano 1
%%MIDI program 3 0 % Piano 1
%%MIDI program 4 0 % Piano 1
%
% 1
[V: S1V1] [Q:1/4=95] (E/G/) | A3/2 c/ B3/4G// | (c/d/) c B | A/B/ A G | E2 (E/G/) | A3/2 c/ B3/4G// | 
w: 1.~O * Word of God the Fa - ther Be- fore the worlds be- gan Who * laid the earth’s foun- 
w: 2.~O * Word of God the Fa - ther,  Our fa- thers sought for thee. They * left the lands of 
w: 3.~O * Word of God the Fa - ther Stretched out u- pon the tree, You * left your throne in 
w: 4.~O * Word of God the Fa - ther, You reign as king on high. You * raised our hu- man 
[V: S1V2]  E | F3/2 F/ F3/4G// | E E E | C/G/ F D | C2 E | F3/2 F/ F3/4G// | 
[V: S2V1]  C | A,3/2 A,/ B,3/4B,// | G, G, G, | C/B,/ C G, | C2 B, | A,3/2 A,/ B,3/4B,// | 
[V: S2V2]  C, | F,3/2 F,/ D,3/4D,// | E, E, E, | F,/G,/ A, B, | A,2 G, | F,3/2 F,/ D,3/4D,// | 
%6
[V: S1V1] (c/d/) e e | e/d/ c d | c2 (G/E/) | D3/2 D/ C/E/ | D G (G/E/) |
w: da - tions, Who stretched out hea- ven’s span; Who * gave the stars their or- bits, Who *
w: slav - 'ry, They passed through E- gypt’s sea; They * heard the voice that thun- dered, They *
w: heav - en And died to set us free. You * came and dwelt a- mongst us, You *
w: na - ture, That death it- self may die: The * Lamb, en- throned 'midst an- gels, The *
[V: S1V2]  E G G | F/F/ F F | E2 C | B,3/2 B,/ C/C/ | B, B, C | 
[V: S2V1]  C C C | A,/A,/ A, A, | G,2 G, | G,3/2 G,/ E,/E,/ | G, G, G, | 
[V: S2V2]  E, C, (C,/E,/) | F,/F,/ F, F, | C,2 E, | G,,3/2 G,,/ A,,/A,,/ | B,, B,, E, | 
%11
[V: S1V1]  D3/2 D/ E/G/ | A2 (A/B/) | c3/4c// B A | G c E | 
w: gave the Sun its light; Who * clothed the earth with o- ceans, Formed
w: van- quished Can- aan's kings; They * heard the words of pro- phets, The
w: bore our griefs and pain; You * per- ished as an out- law To
w: Lord a- bove all lords, The * right- eous judge of na- tions, Whose
[V: S1V2]  B,3/2 B,/ C/E/ | F2 F | E3/4E// E F | G F C | 
[V: S2V1]  G,3/2 G,/ G,/C/ | A,2 D | C3/4C// C C | C C G, | 
[V: S2V2]  G,,3/2 G,,/ C,/C,/ | (F, E,) D, | A,3/4A,// G, F, | E, D, C, | 
% 15
[V: S1V1]  D/C/ D E | G2 (E/G/) | A3/2 c/ B3/4G// | (c/d/) c B | A/B/ A G | 
w: moun- tains by your might. O * Word of God, Cre - a- tor, Cre- a- tion sings your
w: judg- ment for their sins. O * Word of God, Re - veal- er, You spoke through the long
w: cleanse us from sin's stain. O * Word of God, Re - deem- er, The Word of truth and
w: words are two-edged swords. O * Word of God, Re - new- er, We wor- ship at your
[V: S1V2]  A,/A,/ A, C | (D C) E | F3/2 F/ F3/4G// | E E E | C/G/ F D | 
[V: S2V1]  F,/F,/ F, A, | (G,A,) B, | C3/2 C/ D3/4D// | G, G, G, | C/B,/ C G, | 
[V: S2V2]  F,/F,/ D, C, | (B,, A,,) G,, | F,,3/2 F,/ D,3/4D,// | E, E, E, | F,/G,/ A, B, | 
% 20
[V: S1V1]  E2 (E/G/) | A3/2 c/ B3/4G// | (c/d/) e e | e/d/ c d | c |]
w: praise; The * world dis- plays your pow - er And na- ture shows your grace.
w: years: Your * law to guide our foot - steps, Your love to calm our fears.
w: grace Though * hid- den through long a - ges, You show us now your face.
w: throne Cre - a- tion bows in won - der And owns your rule a- lone.
[V: S1V2]  C2 E | F3/2 F/ F3/4G// | G G G | A/A/ A A | G2 |]
[V: S2V1]  C2 B, | A,3/2 A,/ B,3/4B,// | C C C | C/C/ C F | E2 |]
[V: S2V2]  A,2 G, | F,3/2 F,/ D,3/4D,// | E, C, (C,/E,/) | F,/F,/ F, F, | C,2 |]


